vendor/shopware/storefront/Resources/app/storefront/dist/assets/icon/solid/checkmark-small.svg

<svg xmlns="http://www.w3.org/2000/svg" xmlns:xlink="http://www.w3.org/1999/xlink" width="16" height="16" viewBox="0 0 16 16">
  <defs>
    <path id="icons-small-default-checkmark-line-small-a" d="M5.70710678,7.29289322 C5.31658249,6.90236893 4.68341751,6.90236893 4.29289322,7.29289322 C3.90236893,7.68341751 3.90236893,8.31658249 4.29289322,8.70710678 L6.29289322,10.7071068 C6.68341751,11.0976311 7.31658249,11.0976311 7.70710678,10.7071068 L11.7071068,6.70710678 C12.0976311,6.31658249 12.0976311,5.68341751 11.7071068,5.29289322 C11.3165825,4.90236893 10.6834175,4.90236893 10.2928932,5.29289322 L7,8.58578644 L5.70710678,7.29289322 Z"/>
  </defs>
  <use fill="#758CA3" fill-rule="evenodd" xlink:href="#icons-small-default-checkmark-line-small-a"/>
</svg>

<svg xmlns="http://www.w3.org/2000/svg" xmlns:xlink="http://www.w3.org/1999/xlink" width="16" height="16" viewBox="0 0 16 16"><defs><path id="icons-small-default-checkmark-line-small-a" d="M5.7071 7.2929c-.3905-.3905-1.0237-.3905-1.4142 0-.3905.3905-.3905 1.0237 0 1.4142l2 2c.3905.3905 1.0237.3905 1.4142 0l4-4c.3905-.3905.3905-1.0237 0-1.4142-.3905-.3905-1.0237-.3905-1.4142 0L7 8.5858l-1.2929-1.293z"/></defs><use fill="#758CA3" fill-rule="evenodd" xlink:href="#icons-small-default-checkmark-line-small-a"/></svg>
